!!!COM: Music21
!!!OTL: Rumba da Buxaina
!!!OMV: pezas_rumbas_rumba-da-buxaina_rumba-da-buxaina-partitura.musicxml
**kern
*I"Bagpipes
*I'Bag
*clefG^2
*k[]
*M2/4
=1
!LO:TX:a:t=Andante
*MM96
!LO:TX:a:t=[quarter]=96
4.r
8gg
=||
8ggL
16ffL
16eeJJ
8ffL
8eeJ
=
8ddL
[8ccJ
8ccL]
8ggJ
=
8ggL
16ffL
16eeJJ
8ffL
8eeJ
=
4.dd
8ff
=
8ffL
16eeL
16ddJJ
8eeL
8ddJ
=
8ccL
8bJ
8ggL
8ggJ
=
8ggL
16ffL
16eeJJ
8ffL
8ddJ
=
4.cc
8gg
!!linebreak:original
=||
8ggL
16ffL
16eeJJ
8ffL
8eeJ
=
8ddL
[8ccJ
8ccL]
8ggJ
=
8ggL
16ffL
16eeJJ
8ffL
8eeJ
=
4.dd
8ff
=
8ffL
16eeL
16ddJJ
8eeL
8ddJ
=
8ccL
8bJ
8ggL
8ggJ
=
8ggL
16ffL
16eeJJ
8ffL
8ddJ
=
4.cc
16ccLL
16ddJJ
!!linebreak:original
=||
8.eeL
16ffJk
8ggL
8aaJ
=
4.gg
16ggLL
16ffJJ
=
8.ggL
16ffJk
8ggL
8ffJ
=
8eeL
[8ddJ
8ddL]
16bL
16ccJJ
=
8.ddL
16eeJk
8ffL
8aaJ
=
4gg
8ggL
8ggJ
=
8ggL
16ffL
16eeJJ
8ffL
8ddJ
=
4.cc
16ccLL
16ddJJ
!!linebreak:original
=||
8.eeL
16ffJk
8ggL
8aaJ
=
4.gg
16ggLL
16ffJJ
=
8.ggL
16ffJk
8ggL
8ffJ
=
8eeL
[8ddJ
8ddL]
16bL
16ccJJ
=
8.ddL
16eeJk
8ffL
8aaJ
=
4gg
8ggL
8ggJ
=
8ggL
16ffL
16eeJJ
8ffL
8ddJ
=||
4.cc
8gg
!!linebreak:original
=||
2cc
=
8ccc
8r
4r
==
*-
